.local/share/icons/Gruvbox-Plus-Dark/mimetypes/scalable/wps-office-dot.svg

<svg width="256" height="256" viewBox="0 0 256 256" fill="none" xmlns="http://www.w3.org/2000/svg">
<g opacity="0.4" filter="url(#filter0_f)">
<path d="M55.0839 15.5636H155.608L216.009 75.7129L216.011 224.609C216.011 233.52 208.749 240.737 199.838 240.737H55.0838C46.1734 240.737 39 233.564 39 224.654V31.6474C39 22.737 46.1734 15.5636 55.0838 15.5636H55.0839Z" fill="#282828"/>
</g>
<path d="M55.0839 15H155.608L216.009 75.1493L216.011 224.045C216.011 232.956 208.749 240.174 199.838 240.174H55.0838C46.1734 240.174 39 233 39 224.09V31.0838C39 22.1734 46.1734 15 55.0838 15H55.0839Z" fill="#ebdbb2"/>
<path opacity="0.2" d="M199.838 240.174C208.749 240.174 216.011 232.956 216.011 224.046L216.01 186.5H39V224.09C39 233 46.1734 240.174 55.0838 240.174H199.838Z" fill="url(#paint0_linear)"/>
<path fill-rule="evenodd" clip-rule="evenodd" d="M155.608 20.3191H55.0839C49.1112 20.3191 44.3191 25.1111 44.3191 31.0838V224.09C44.3191 230.063 49.1111 234.855 55.0838 234.855H199.838C205.83 234.855 210.692 229.999 210.692 224.046V75.1493L155.608 20.3191ZM155.608 15H55.0839C46.1735 15 39 22.1734 39 31.0838V224.09C39 233 46.1734 240.174 55.0838 240.174H199.838C208.749 240.174 216.011 232.956 216.011 224.045L216.009 75.1493L155.608 15Z" fill="url(#paint1_linear)"/>
<path d="M90.9586 198V226H99.4386C109.719 226 113.079 218.4 113.079 212C113.079 205.04 109.399 198 99.5986 198H90.9586ZM100.119 221.48H95.7586V202.52H100.559C105.879 202.52 108.119 207.28 108.119 212C108.119 216.4 106.079 221.48 100.119 221.48ZM130.168 226.48C139.208 226.48 142.448 218.92 142.448 212C142.448 205.08 139.208 197.52 130.168 197.52C121.168 197.52 117.888 205.08 117.888 212C117.888 218.92 121.168 226.48 130.168 226.48ZM130.168 221.88C124.728 221.88 122.848 216.56 122.848 212C122.848 207.68 124.728 202.12 130.168 202.12C135.608 202.12 137.488 207.4 137.488 212C137.488 216.28 135.568 221.88 130.168 221.88ZM157.895 202.6H165.855V198H145.135V202.6H153.095V226H157.895V202.6Z" fill="url(#paint2_linear)"/>
<path d="M132.197 60C114.137 63.1018 96.066 67.2161 78.0053 70.2607C78.0053 96.7536 77.9933 123.258 78.0053 149.762C95.9716 152.796 113.949 156.842 131.88 160H137.259V60H132.197H132.197ZM125.212 92.3911L116.89 126.071L110.06 125.552C108.493 118.031 106.669 110.556 105.267 103.002C103.887 110.341 102.095 117.612 100.517 124.905C98.2548 124.791 95.9827 124.655 93.7086 124.507C91.7531 114.51 89.4551 104.581 87.6292 94.5607C89.6439 94.4705 91.6707 94.3911 93.6846 94.3232C94.8975 101.56 96.2771 108.762 97.3363 116.011C98.9974 108.58 100.696 101.15 102.345 93.7205C104.583 93.5955 106.821 93.5045 109.059 93.3911C110.627 101.06 112.228 108.715 113.924 116.35C115.255 108.466 116.729 100.605 118.154 92.7321C120.511 92.6518 122.866 92.5268 125.211 92.3911H125.212ZM140.964 74.2857H178V145.714H140.964V138.571H170.593V135H140.964V127.857H170.593V124.286H140.964V117.143H170.593V113.571H140.964V106.429H170.593V102.857H140.964V95.7268H170.593V92.1429H140.964V85H170.593V81.4286H140.964V74.2857Z" fill="url(#paint3_linear)"/>
<path opacity="0.25" d="M155.608 17V61.2306C155.608 70.141 162.867 77.1605 171.777 77.1605L216.009 77.1493V75.1493L155.608 17Z" fill="#282828"/>
<path d="M155.608 15V59.2306C155.608 68.141 162.867 75.1605 171.777 75.1605L216.009 75.1493L155.608 15Z" fill="url(#paint4_linear)"/>
<defs>
<filter id="filter0_f" x="23.8778" y="0.441412" width="207.255" height="255.418" filterUnits="userSpaceOnUse" color-interpolation-filters="sRGB">
<feFlood flood-opacity="0" result="BackgroundImageFix"/>
<feBlend mode="normal" in="SourceGraphic" in2="BackgroundImageFix" result="shape"/>
<feGaussianBlur stdDeviation="7.5611" result="effect1_foregroundBlur"/>
</filter>
<linearGradient id="paint0_linear" x1="39" y1="186.5" x2="39" y2="240.174" gradientUnits="userSpaceOnUse">
<stop offset="1e-07" stop-color="#076678"/>
<stop offset="1" stop-color="#458588"/>
</linearGradient>
<linearGradient id="paint1_linear" x1="39" y1="15" x2="39" y2="240.174" gradientUnits="userSpaceOnUse">
<stop offset="1e-07" stop-color="#076678"/>
<stop offset="1" stop-color="#458588"/>
</linearGradient>
<linearGradient id="paint2_linear" x1="39" y1="187" x2="39" y2="240" gradientUnits="userSpaceOnUse">
<stop offset="1e-07" stop-color="#076678"/>
<stop offset="1" stop-color="#458588"/>
</linearGradient>
<linearGradient id="paint3_linear" x1="78" y1="60" x2="78" y2="160" gradientUnits="userSpaceOnUse">
<stop offset="1e-07" stop-color="#076678"/>
<stop offset="1" stop-color="#458588"/>
</linearGradient>
<linearGradient id="paint4_linear" x1="155.608" y1="15" x2="155.608" y2="75.1605" gradientUnits="userSpaceOnUse">
<stop offset="1e-07" stop-color="#076678"/>
<stop offset="1" stop-color="#458588"/>
</linearGradient>
</defs>
</svg>

<svg width="256" height="256" fill="none" version="1.1" viewBox="0 0 256 256" xmlns="http://www.w3.org/2000/svg">
  <path d="m55.08 15h100.5l60.4 60.15 2e-3 148.9c0 8.911-7.262 16.13-16.17 16.13h-144.8c-8.91 0-16.08-7.174-16.08-16.08v-193c0-8.91 7.173-16.08 16.08-16.08h1e-4z" fill="#ebdbb2"/>
  <path d="m199.8 240.2c8.911 0 16.17-7.218 16.17-16.13l-1e-3 -37.55h-177v37.59c0 8.91 7.173 16.08 16.08 16.08h144.8z" fill="url(#paint0_linear)" opacity=".2"/>
  <path d="m155.6 20.32h-100.5c-5.973 0-10.76 4.792-10.76 10.76v193c0 5.973 4.792 10.76 10.76 10.76h144.8c5.992 0 10.85-4.856 10.85-10.81v-148.9l-55.08-54.83zm0-5.319h-100.5c-8.91 0-16.08 7.173-16.08 16.08v193c0 8.91 7.173 16.08 16.08 16.08h144.8c8.911 0 16.17-7.218 16.17-16.13l-2e-3 -148.9-60.4-60.15z" clip-rule="evenodd" fill="url(#paint1_linear)" fill-rule="evenodd"/>
  <path d="m90.96 198v28h8.48c10.28 0 13.64-7.6 13.64-14 0-6.96-3.68-14-13.48-14h-8.64zm9.16 23.48h-4.36v-18.96h4.8c5.32 0 7.56 4.76 7.56 9.48 0 4.4-2.04 9.48-8 9.48zm30.05 5c9.04 0 12.28-7.56 12.28-14.48s-3.24-14.48-12.28-14.48c-9 0-12.28 7.56-12.28 14.48s3.28 14.48 12.28 14.48zm0-4.6c-5.44 0-7.32-5.32-7.32-9.88 0-4.32 1.88-9.88 7.32-9.88s7.32 5.28 7.32 9.88c0 4.28-1.92 9.88-7.32 9.88zm27.73-19.28h7.96v-4.6h-20.72v4.6h7.96v23.4h4.8v-23.4z" fill="url(#paint2_linear)"/>
  <path d="m132.2 60c-18.06 3.102-36.13 7.216-54.19 10.26 0 26.49-0.012 53 0 79.5 17.97 3.034 35.94 7.08 53.87 10.24h5.379v-100h-5.062zm-6.985 32.39-8.322 33.68-6.83-0.519c-1.567-7.521-3.391-15-4.793-22.55-1.38 7.339-3.172 14.61-4.75 21.9-2.262-0.114-4.534-0.25-6.808-0.398-1.956-9.997-4.254-19.93-6.079-29.95 2.015-0.0902 4.042-0.1696 6.055-0.2375 1.213 7.237 2.592 14.44 3.652 21.69 1.661-7.431 3.36-14.86 5.009-22.29 2.238-0.125 4.476-0.216 6.714-0.3294 1.568 7.669 3.169 15.32 4.865 22.96 1.331-7.884 2.805-15.74 4.23-23.62 2.357-0.0803 4.712-0.2053 7.057-0.341h1e-3zm15.75-18.11h37.04v71.43h-37.04v-7.143h29.63v-3.571h-29.63v-7.143h29.63v-3.571h-29.63v-7.143h29.63v-3.572h-29.63v-7.142h29.63v-3.572h-29.63v-7.13h29.63v-3.584h-29.63v-7.143h29.63v-3.571h-29.63v-7.143z" fill="url(#paint3_linear)"/>
  <path d="m155.6 17v44.23c0 8.91 7.259 15.93 16.17 15.93l44.23-0.0112v-2l-60.4-58.15z" fill="#282828" opacity=".25"/>
  <path d="m155.6 15v44.23c0 8.91 7.259 15.93 16.17 15.93l44.23-0.0112-60.4-60.15z" fill="url(#paint4_linear)"/>
  <defs>
    <linearGradient id="paint0_linear" x1="39" x2="39" y1="186.5" y2="240.2" gradientUnits="userSpaceOnUse">
      <stop stop-color="#076678" offset="1e-7"/>
      <stop stop-color="#458588" offset="1"/>
    </linearGradient>
    <linearGradient id="paint1_linear" x1="39" x2="39" y1="15" y2="240.2" gradientUnits="userSpaceOnUse">
      <stop stop-color="#076678" offset="1e-7"/>
      <stop stop-color="#458588" offset="1"/>
    </linearGradient>
    <linearGradient id="paint2_linear" x1="39" x2="39" y1="187" y2="240" gradientUnits="userSpaceOnUse">
      <stop stop-color="#076678" offset="1e-7"/>
      <stop stop-color="#458588" offset="1"/>
    </linearGradient>
    <linearGradient id="paint3_linear" x1="78" x2="78" y1="60" y2="160" gradientUnits="userSpaceOnUse">
      <stop stop-color="#076678" offset="1e-7"/>
      <stop stop-color="#458588" offset="1"/>
    </linearGradient>
    <linearGradient id="paint4_linear" x1="155.6" x2="155.6" y1="15" y2="75.16" gradientUnits="userSpaceOnUse">
      <stop stop-color="#076678" offset="1e-7"/>
      <stop stop-color="#458588" offset="1"/>
    </linearGradient>
  </defs>
</svg>
